!!!COM: Bach, Johann Sebastian
!!!OPR: Joh. Seb. Bachs vierstimmige Choralges‰nge
!!!XEN: Four-part Chorales
!!!OTL: 135. Nun freut euch, lieben Christen g'mein
!!!SCT: BWV 388
!!!SCA: Thematisch-systematisches Verzeichnis der musikalischen Werke Johann Sebastian Bach: Bach-Werke-Verzeichnis (Schmieder)
!!!YOR: Bach Gesellschaft Edition xxxix
!!!ENC: Steven Rasmussen
!!!CDT: 1685/3//-1750/7/28/
!!!OCY: Deutschland
!!!YEC: Copyright (c) 1994, 2000 Center for Computer Assisted Research in the Humanities
!!!YEM: Rights to all derivative editions reserved
!!!YEN: United States of America
**kern	**kern	**kern	**kern	**silbe
*I:[BASSO]	*I:[TENORE]	*I:[ALTO]	*I:[SOPRANO]	*I:[SOPRANO]
*>[A,A,B]	*>[A,A,B]	*>[A,A,B]	*>[A,A,B]	*
*>A	*>A	*>A	*>A	*
*clefF4	*clefGv2	*clefG2	*clefG2	*
*k[f#]	*k[f#]	*k[f#]	*k[f#]	*
*G:	*G:	*G:	*G:	*
*M4/4	*M4/4	*M4/4	*M4/4	*
8GGL	8BL	4d	4g	Nundass
8AAJ	8AJ	.	.	.
=1	=1	=1	=1	=1
8BBL	4G	4d	4g	freutwir
8CJ	.	.	.	.
8DL	4F#	4A	4d	euch,ge-
8CJ	.	.	.	.
4BB	4G	4d	4g	lie--trost
4AA	8GL	4a	4cc	-benund
.	8F#J	.	.	.
=2	=2	=2	=2	=2
8GGL	4.G	4d	4b	Chri-all'
8BBJ	.	.	.	.
4D	.	8.dL	4a	-stenin
.	8F#	.	.	.
.	.	16cJk	.	.
4GG;	4D;	4B;	4g;	g'mein,Ein
4E	4G	8BL	4g	undmit
.	.	8c#J	.	.
=3	=3	=3	=3	=3
4D	8F#L	8dL	8aL	lasstLust
.	8G#J	8fnJ	8bJ	.
4AA	4A	8eL	4cc	unsund
.	.	8f#J	.	.
8BBL	8DL	4g	4b	fr√∂h-Lie-
8CJ	8EJ	.	.	.
4D	4F#	8dL	4a	-lich-be
.	.	16AL	.	.
.	.	16BJJ	.	.
=4	=4	=4	=4	=4
8CL	4G	2c	4e	sprin-sin-
8BBJ	.	.	.	.
4AA	4A	.	4f#	.
4GG;	4D;	4B;	4g;	-gen,-gen:
=:|!	=:|!	=:|!	=:|!	=:|!
*>B	*>B	*>B	*>B	*
8GL	4B	4d	4g	was
8F#J	.	.	.	.
=5	=5	=5	=5	=5
8EL	8eL	(8g	4cc	Gott
8F#J	8dJ	4a)	.	.
4G	4d	.	4b	an
.	.	16gLL	.	.
.	.	16f#JJ	.	.
8GL	4c#	4e	4a	uns
16AL	.	.	.	.
16GJJ	.	.	.	.
8F#L	4d	8aL	4dd	ge-
8BJ	.	8f#J	.	.
=6	=6	=6	=6	=6
4G	8BL	(8e	4dd	-wen-
.	8EJ	4g)	.	.
8AL	4A	.	4cc#	-det
8AAJ	.	16f#LL	.	.
.	.	16eJJ	.	.
4D;	4A;	4f#;	4dd;	hat,
4BB	4d	4g	4dd	und
=7	=7	=7	=7	=7
8CL	8dL	4g	4ee	sei-
8DJ	16cL	.	.	.
.	16BJJ	.	.	.
4E	8cL	4g	4cc	-ne
.	8eJ	.	.	.
8F#L	8dL	8aL	4.dd	s√º-
8DJ	8cJ	8f#J	.	.
8EL	8BL	8gL	.	.
8F#J	8AJ	8aJ	8cc	-sse
=8	=8	=8	=8	=8
4G	16BLL	(8a	4b	Wun-
.	16cJJ	.	.	.
.	4d	4g)	.	.
4D	.	.	4a	-der
.	8c	8f#	.	.
4E;	4B;	4e;	4g;	tat;
4E	4G	4e	4b	gar
=9	=9	=9	=9	=9
4F#	4A	8eL	4a	teu'r
.	.	16dL	.	.
.	.	16cJJ	.	.
8GL	8GL	4B	4d	hat
8F#J	8AJ	.	.	.
4E	4B	8eL	4g	er's
.	.	8dJ	.	.
4AA	4A	8eL	4cc	er-
.	.	8f#J	.	.
=10	=10	=10	=10	=10
8BBL	[4d	4.g	4b	-wor-
8CJ	.	.	.	.
4D	8.dL]	.	4a	.
.	.	8f#	.	.
.	16cJk	.	.	.
4GG;	4B;	4d;	4g;	-ben.
==|!	==|!	==|!	==|!	==|!
*-	*-	*-	*-	*-
!!!RWG: Key is interpreted using the Humdrum key tool.
!!!URL-pdf: https://s9.imslp.org/files/imglnks/usimg/6/6b/IMSLP24489-PMLP09471-CCARH_Bach_Chorales.pdf#page=95 Musedata edition
!!!URL-pdf: https://s9.imslp.org/files/imglnks/usimg/7/7a/IMSLP04155-Bach_-_BGA_253-438.pdf#page=74 	Bach-Gesellschaft Ausgabe, Band 39 (pp.175-276) Leipzig: Breitkopf und H‰rtel, 1892. Plate B.W. XXXIX.
!!!END: 1994/07/19
!!!EMD: Converted from MuseData to Humdrum Dec 19, 2000, by Andreas Kornstaedt using muse2kern.
!!!EED: Craig Stuart Sapp
!!!EEV: 2024/03/31
!!!ONB: Some non-unicode characters
!!!filter-keyboard: satb2gs
